packages/eui/src/components/icon/svgs/paper_clip.svg

<svg xmlns="http://www.w3.org/2000/svg" width="16" height="16" viewBox="0 0 16 16">
  <path d="M7 11C7 11.4229 7.10536 11.6483 7.22852 11.7715C7.35168 11.8946 7.57707 12 8 12C8.42293 12 8.64832 11.8946 8.77148 11.7715C8.89464 11.6483 9 11.4229 9 11V5H10V11C10 11.5771 9.85536 12.1017 9.47852 12.4785C9.10168 12.8554 8.57707 13 8 13C7.42293 13 6.89832 12.8554 6.52148 12.4785C6.14464 12.1017 6 11.5771 6 11V4C6 3.28108 6.21527 2.53178 6.71582 1.9541C7.22667 1.3647 7.99544 1 9 1C10.0046 1 10.7733 1.3647 11.2842 1.9541C11.7847 2.53178 12 3.28108 12 4V11C12 12.103 11.6546 13.1101 10.957 13.8447C10.2555 14.5834 9.24184 15 8 15C6.75816 15 5.74451 14.5834 5.04297 13.8447C4.34537 13.1101 4 12.103 4 11V4H5V11C5 11.8967 5.2785 12.64 5.76758 13.1553C6.25296 13.6664 6.98973 14 8 14C9.01027 14 9.74704 13.6664 10.2324 13.1553C10.7215 12.64 11 11.8967 11 11V4C11 3.46903 10.8402 2.96818 10.5283 2.6084C10.2266 2.26039 9.74507 2 9 2C8.25493 2 7.7734 2.26039 7.47168 2.6084C7.15985 2.96818 7 3.46903 7 4V11Z" />
</svg>

<svg xmlns="http://www.w3.org/2000/svg" width="16" height="16" viewBox="0 0 16 16">
  <path d="M7 11c0 .423.105.648.229.771.123.124.348.229.771.229.423 0 .648-.105.771-.229.124-.123.229-.348.229-.771V5h1v6c0 .577-.145 1.102-.521 1.479C9.102 12.854 8.577 13 8 13c-.577 0-1.102-.145-1.479-.521C6.145 12.101 6 11.577 6 11V4c0-.719.215-1.468.716-2.046C7.226 1.364 7.996 1 9 1c1.005 0 1.773.365 2.284.954.5.578.716 1.327.716 2.046v7c0 1.103-.345 2.11-1.043 2.845C10.255 14.583 9.242 15 8 15c-1.242 0-2.255-.417-2.957-1.155C4.345 13.11 4 12.103 4 11V4h1v7c0 .897.279 1.64.768 2.155C6.253 13.666 6.99 14 8 14c1.01 0 1.747-.334 2.232-.845.49-.515.768-1.258.768-2.155V4c0-.531-.16-1.032-.472-1.392C10.227 2.26 9.745 2 9 2s-1.227.26-1.528.608C7.16 2.968 7 3.47 7 4v7Z"/>
</svg>
